X: 09019
T: CIA'S JIG
C: Bob McQuillen 24 Mar 92
B: Bob's Note Book 9 #19
R: jig
Z: 2019 John Chambers <jc:trillian.mit.edu>
M: 6/8
L: 1/8
K: D
f2e \
| d2B AFE | F2E DFB | AFA dcd | e2c Afe |
| d2B AFE | F2E DEF | EFG ABc | d3 :|
|: c2d \
| e2c Acf | e2c A2c | e^de fe=d | cBA Bcd |
| efe cAc | BAF E2c | edc BAG | A3 :|
%%begintext align
%% I've known Cia Iselin
%% (pro. "Keeya isslin") and her wonderful family for probably
%% more years than either of us cares to talk about, and every time
%% I go over to the Folkway she always gives me the warmest possible
%% welcome. I really appreciate all you do for us, Cia, and I'm so
%% glad this little tune came along with your name in the title space.
%% Much love to you, from Bob --
%%endtext

%%sep 1 1 500

%%sep 1 1 500

